X:1
T:Title
%%score { 1 | ( 2 3 ) }
L:1/8
M:4/4
K:Bb
V:1 treble nm="Grand Piano"
V:2 bass 
V:3 bass 
V:1
 z4 z2[Q:1/4=100] [DF]2 | [Fd]3 [Fd] [Fd]>[Ec] [DB]>[DF] | G4 B4 | F2 [DB]2 [DB]2 [Fd]2 | c6 F2 | %5
 [Fd]3 [Fd] [Fd]>[Ec] [DB]>[DF] | G4 e4 | d3 B c2 A2 | [DB]6 [DB]2 | c2 c2 c>e d>c |[M:3/4] d6 | %11
[M:1/4] c2 |[M:4/4] B2 [FB]2 [GB]>[Gc] [GB]>[EG] | [DF]6 z2 | [DF]4 [DB]4 | [Fd]4 [DB]4 | %16
 c3 B d2 c2 | [DB]6 z2 |] %18
V:2
 z4 z2 [B,,B,]2 | [B,,B,]3 [B,,B,] [B,,B,]>[B,,F,] [B,,F,]>[B,,B,] | B,4 z4 | %3
 [D,B,]2 [B,,F,]2 [B,,F,]2 [B,,B,]2 | [F,A,F]6 [F,A,]2 | %5
 [B,,B,]3 [B,,B,] [B,,B,]>[B,,F,] [B,,F,]>[B,,B,] | E4[K:treble] G4 | %7
 [F,B,F]3[K:bass] [F,B,D] [F,A,E]2 [F,CE]2 | [B,,B,]6 [B,,B,]2 | %9
 [F,A,F]2 [F,A,F]2 [F,A,F]>[F,CF] [F,B,F]>[F,A,F] |[M:3/4] [B,F]6 |[M:1/4][K:bass] [F,A,E]2 | %12
[M:4/4] [G,B,D]2 [D,B,]2 [E,B,]>[E,B,] [E,B,]>[E,B,] | [B,,B,]6 z2 | [B,,B,]4 [B,,F,]4 | %15
 [B,,B,]4 [B,,B,]4 | [F,A,E]3 [F,B,D] [F,F]2 [F,E]2 | [B,,F,]6 z2 |] %18
V:3
 x8 | x8 | [E,E]4- [E,G,E]4 | x8 | x8 | x8 | [E,B,]8[K:treble] | x3[K:bass] x5 | x8 | x8 | %10
[M:3/4] x6 |[M:1/4][K:bass] x2 |[M:4/4] x8 | x8 | x8 | x8 | x8 | x8 |] %18

